X: 48
T:Piper's Lass Reel
M:2/4
L:1/16
Z:abc by Bruce Osborne - bosborne@kos.net
K:D
F2AF DFAF|G2BG dGBG|F2AF DFAd|BGFG E2D2|!
F2AF DFAF|G2BG dGBG|FGAF DFAd|BGFG E2D2:|!
|:Acde f2fa|gefd edBd|Acde fdfg|afdf e2d2|!
Acde f2fa|gefd edBd|Acde fefg|afdf e2d2:|!
